Assets/Third Party Assets/Textures/LookupTexture/newLut.CUBE
#Created by: Adobe Photoshop Export Color Lookup Plugin
TITLE "new_Frame.exr"
#LUT size
LUT_3D_SIZE 32
#data domain
DOMAIN_MIN 0.0 0.0 0.0
DOMAIN_MAX 1.0 1.0 1.0
#LUT data points
0.000000 0.000000 0.000000
0.000000 0.000000 0.000000
0.000000 0.000000 0.000000
0.000987 0.000000 0.000000
0.006667 0.000000 0.000000
0.013303 0.003541 0.000000
0.021070 0.008847 0.000000
0.031155 0.015736 0.000000
0.045297 0.025396 0.000000
0.064742 0.038679 0.000000
0.091171 0.056733 0.000000
0.126526 0.080884 0.000000
0.174748 0.113825 0.000000
0.240154 0.158504 0.000000
0.328889 0.219120 0.000000
0.449270 0.301352 0.000000
0.612018 0.412527 0.000000
0.832407 0.563075 0.000000
1.000000 0.767251 0.000000
1.000000 1.000000 0.000000
1.000000 1.000000 0.000000
1.000000 1.000000 0.000000
1.000000 1.000000 0.000000
1.000000 1.000000 0.000000
1.000000 1.000000 0.000000
1.000000 1.000000 0.000000
1.000000 1.000000 0.000000
1.000000 1.000000 0.000000
1.000000 1.000000 0.000000
1.000000 1.000000 0.000000
1.000000 1.000000 0.000000
1.000000 1.000000 0.000000
0.000000 0.000000 0.000000
0.000000 0.000000 0.000000
0.000000 0.000000 0.000000
0.000384 0.000987 0.000000
0.006667 0.005470 0.000000
0.013303 0.010004 0.000000
0.021070 0.015309 0.000000
0.031155 0.022198 0.000000
0.045297 0.031858 0.000000
0.064742 0.045142 0.000000
0.091171 0.063196 0.000000
0.126526 0.087347 0.000000
0.174748 0.120287 0.000000
0.240154 0.164967 0.000000
0.328889 0.225582 0.000000
0.449270 0.307815 0.000000
0.612018 0.418989 0.000000
0.832407 0.569538 0.000000
1.000000 0.773713 0.000000
1.000000 1.000000 0.000000
1.000000 1.000000 0.000000
1.000000 1.000000 0.000000
1.000000 1.000000 0.000000
1.000000 1.000000 0.000000
1.000000 1.000000 0.000000
1.000000 1.000000 0.000000
1.000000 1.000000 0.000000
1.000000 1.000000 0.000000
1.000000 1.000000 0.000000
1.000000 1.000000 0.000000
1.000000 1.000000 0.000000
1.000000 1.000000 0.000000
0.000000 0.000000 0.000000
0.000000 0.000000 0.000000
0.000000 0.000000 0.000000
0.000000 0.000987 0.000000
0.002242 0.006667 0.000000
0.010981 0.013303 0.000000
0.021070 0.020931 0.000000
0.031155 0.027820 0.000000
0.045297 0.037481 0.000000
0.064742 0.050764 0.000000
0.091171 0.068818 0.000000
0.126526 0.092969 0.000000
0.174748 0.125909 0.000000
0.240154 0.170589 0.000000
0.328889 0.231204 0.000000
0.449270 0.313437 0.000000
0.612018 0.424611 0.000000
0.832407 0.575160 0.000000
1.000000 0.779335 0.000000
1.000000 1.000000 0.000000
1.000000 1.000000 0.000000
1.000000 1.000000 0.000000
1.000000 1.000000 0.000000
1.000000 1.000000 0.000000
1.000000 1.000000 0.000000
1.000000 1.000000 0.000000
1.000000 1.000000 0.000000
1.000000 1.000000 0.000000
1.000000 1.000000 0.000000
1.000000 1.000000 0.000000
1.000000 1.000000 0.000000
1.000000 1.000000 0.000000
0.000000 0.000987 0.000000
0.000000 0.000987 0.000000
0.000000 0.000987 0.000000
0.000000 0.000987 0.000000
0.000000 0.006667 0.000000
0.004576 0.013303 0.000000
0.014804 0.021070 0.000000
0.028085 0.031155 0.000000
0.045297 0.043885 0.000000
0.064742 0.057168 0.000000
0.091171 0.075222 0.000000
0.126526 0.099373 0.000000
0.174748 0.132314 0.000000
0.240154 0.176993 0.000000
0.328889 0.237609 0.000000
0.449270 0.319841 0.000000
0.612018 0.431015 0.000000
0.832407 0.581564 0.000000
1.000000 0.785740 0.000000
1.000000 1.000000 0.000000
1.000000 1.000000 0.000000
1.000000 1.000000 0.000000
1.000000 1.000000 0.000000
1.000000 1.000000 0.000000
1.000000 1.000000 0.000000
1.000000 1.000000 0.000000
1.000000 1.000000 0.000000
1.000000 1.000000 0.000000
1.000000 1.000000 0.000000
1.000000 1.000000 0.000000
1.000000 1.000000 0.000000
1.000000 1.000000 0.000000
0.000000 0.006667 0.000000
0.000000 0.006667 0.000000
0.000000 0.006667 0.000000
0.000000 0.006667 0.000000
0.000000 0.006667 0.000000
0.000000 0.013303 0.000000
0.009124 0.021070 0.000000
0.022405 0.031155 0.000000
0.041028 0.045297 0.000000
0.064742 0.062848 0.000000
0.091171 0.080902 0.000000
0.126526 0.105053 0.000000
0.174748 0.137994 0.000000
0.240154 0.182673 0.000000
0.328889 0.243289 0.000000
0.449270 0.325521 0.000000
0.612018 0.436695 0.000000
0.832407 0.587244 0.000000
1.000000 0.791420 0.000000
1.000000 1.000000 0.000000
1.000000 1.000000 0.000000
1.000000 1.000000 0.000000
1.000000 1.000000 0.000000
1.000000 1.000000 0.000000
1.000000 1.000000 0.000000
1.000000 1.000000 0.000000
1.000000 1.000000 0.000000
1.000000 1.000000 0.000000
1.000000 1.000000 0.000000
1.000000 1.000000 0.000000
1.000000 1.000000 0.000000
1.000000 1.000000 0.000000
0.000000 0.013303 0.003541
0.000000 0.013303 0.000000
0.000000 0.013303 0.000000
0.000000 0.013303 0.000000
0.000000 0.013303 0.000000
0.000000 0.013303 0.000000
0.002488 0.021070 0.000000
0.015768 0.031155 0.000000
0.034392 0.045297 0.000000
0.059999 0.064742 0.000000
0.091171 0.087538 0.000000
0.126526 0.111689 0.000000
0.174748 0.144630 0.000000
0.240154 0.189309 0.000000
0.328889 0.249925 0.000000
0.449270 0.332157 0.000000
0.612018 0.443332 0.000000
0.832407 0.593880 0.000000
1.000000 0.798056 0.000000
1.000000 1.000000 0.000000
1.000000 1.000000 0.000000
1.000000 1.000000 0.000000
1.000000 1.000000 0.000000
1.000000 1.000000 0.000000
1.000000 1.000000 0.000000
1.000000 1.000000 0.000000
1.000000 1.000000 0.000000
1.000000 1.000000 0.000000
1.000000 1.000000 0.000000
1.000000 1.000000 0.000000
1.000000 1.000000 0.000000
1.000000 1.000000 0.000000
0.000000 0.021070 0.008847
0.000000 0.021070 0.002384
0.000000 0.021070 0.000000
0.000000 0.021070 0.000000
0.000000 0.021070 0.000000
0.000000 0.021070 0.000000
0.000000 0.021070 0.000000
0.008002 0.031155 0.000000
0.026625 0.045297 0.000000
0.052233 0.064742 0.000000
0.087037 0.091171 0.000000
0.126526 0.119456 0.000000
0.174748 0.152396 0.000000
0.240154 0.197076 0.000000
0.328889 0.257691 0.000000
0.449270 0.339924 0.000000
0.612018 0.451098 0.000000
0.832407 0.601647 0.000000
1.000000 0.805822 0.000000
1.000000 1.000000 0.000000
1.000000 1.000000 0.000000
1.000000 1.000000 0.000000
1.000000 1.000000 0.000000
1.000000 1.000000 0.000000
1.000000 1.000000 0.000000
1.000000 1.000000 0.000000
1.000000 1.000000 0.000000
1.000000 1.000000 0.000000
1.000000 1.000000 0.000000
1.000000 1.000000 0.000000
1.000000 1.000000 0.000000
1.000000 1.000000 0.000000
0.000000 0.031155 0.015736
0.000000 0.031155 0.009273
0.000000 0.031155 0.003651
0.000000 0.031155 0.000000
0.000000 0.031155 0.000000
0.000000 0.031155 0.000000
0.000000 0.031155 0.000000
0.000000 0.031155 0.000000
0.016541 0.045297 0.000000
0.042148 0.064742 0.000000
0.076952 0.091171 0.000000
0.123511 0.126526 0.000000
0.174748 0.162481 0.000000
0.240154 0.207161 0.000000
0.328889 0.267776 0.000000
0.449270 0.350009 0.000000
0.612018 0.461183 0.000000
0.832407 0.611732 0.000000
1.000000 0.815907 0.000000
1.000000 1.000000 0.000000
1.000000 1.000000 0.000000
1.000000 1.000000 0.000000
1.000000 1.000000 0.000000
1.000000 1.000000 0.000000
1.000000 1.000000 0.000000
1.000000 1.000000 0.000000
1.000000 1.000000 0.000000
1.000000 1.000000 0.000000
1.000000 1.000000 0.000000
1.000000 1.000000 0.000000
1.000000 1.000000 0.000000
1.000000 1.000000 0.000000
0.000000 0.045297 0.025396
0.000000 0.045297 0.018934
0.000000 0.045297 0.013312
0.000000 0.045297 0.006907
0.000000 0.045297 0.001227
0.000000 0.045297 0.000000
0.000000 0.045297 0.000000
0.000000 0.045297 0.000000
0.002399 0.045297 0.000000
0.028006 0.064742 0.000000
0.062810 0.091171 0.000000
0.109369 0.126526 0.000000
0.172872 0.174748 0.000000
0.240154 0.221303 0.000000
0.328889 0.281918 0.000000
0.449270 0.364151 0.000000
0.612018 0.475325 0.000000
0.832407 0.625874 0.000000
1.000000 0.830049 0.000000
1.000000 1.000000 0.000000
1.000000 1.000000 0.000000
1.000000 1.000000 0.000000
1.000000 1.000000 0.000000
1.000000 1.000000 0.000000
1.000000 1.000000 0.000000
1.000000 1.000000 0.000000
1.000000 1.000000 0.000000
1.000000 1.000000 0.000000
1.000000 1.000000 0.000000
1.000000 1.000000 0.000000
1.000000 1.000000 0.000000
1.000000 1.000000 0.000000
0.000000 0.064742 0.038679
0.000000 0.064742 0.032217
0.000000 0.064742 0.026595
0.000000 0.064742 0.020190
0.000000 0.064742 0.014510
0.000000 0.064742 0.007874
0.000000 0.064742 0.000108
0.000000 0.064742 0.000000
0.000000 0.064742 0.000000
0.008561 0.064742 0.000000
0.043365 0.091171 0.000000
0.089924 0.126526 0.000000
0.153427 0.174748 0.000000
0.239560 0.240154 0.000000
0.328889 0.301363 0.000000
0.449270 0.383596 0.000000
0.612018 0.494770 0.000000
0.832407 0.645319 0.000000
1.000000 0.849495 0.000000
1.000000 1.000000 0.000000
1.000000 1.000000 0.000000
1.000000 1.000000 0.000000
1.000000 1.000000 0.000000
1.000000 1.000000 0.000000
1.000000 1.000000 0.000000
1.000000 1.000000 0.000000
1.000000 1.000000 0.000000
1.000000 1.000000 0.000000
1.000000 1.000000 0.000000
1.000000 1.000000 0.000000
1.000000 1.000000 0.000000
1.000000 1.000000 0.000000
0.000000 0.091171 0.056733
0.000000 0.091171 0.050271
0.000000 0.091171 0.044649
0.000000 0.091171 0.038244
0.000000 0.091171 0.032564
0.000000 0.091171 0.025928
0.000000 0.091171 0.018162
0.000000 0.091171 0.008077
0.000000 0.091171 0.000000
0.000000 0.091171 0.000000
0.016936 0.091171 0.000000
0.063495 0.126526 0.000000
0.126998 0.174748 0.000000
0.213131 0.240154 0.000000
0.328889 0.327792 0.000000
0.449270 0.410025 0.000000
0.612018 0.521199 0.000000
0.832407 0.671748 0.000000
1.000000 0.875924 0.000000
1.000000 1.000000 0.000000
1.000000 1.000000 0.000000
1.000000 1.000000 0.000000
1.000000 1.000000 0.000000
1.000000 1.000000 0.000000
1.000000 1.000000 0.000000
1.000000 1.000000 0.000000
1.000000 1.000000 0.000000
1.000000 1.000000 0.000000
1.000000 1.000000 0.000000
1.000000 1.000000 0.000000
1.000000 1.000000 0.000000
1.000000 1.000000 0.000000
0.000000 0.126526 0.080884
0.000000 0.126526 0.074422
0.000000 0.126526 0.068800
0.000000 0.126526 0.062395
0.000000 0.126526 0.056715
0.000000 0.126526 0.050079
0.000000 0.126526 0.042313
0.000000 0.126526 0.032228
0.000000 0.126526 0.018086
0.000000 0.126526 0.000000
0.000000 0.126526 0.000000
0.028140 0.126526 0.000000
0.091643 0.174748 0.000000
0.177776 0.240154 0.000000
0.294631 0.328889 0.000000
0.449270 0.445380 0.000000
0.612018 0.556554 0.000000
0.832407 0.707103 0.000000
1.000000 0.911279 0.000000
1.000000 1.000000 0.000000
1.000000 1.000000 0.000000
1.000000 1.000000 0.000000
1.000000 1.000000 0.000000
1.000000 1.000000 0.000000
1.000000 1.000000 0.000000
1.000000 1.000000 0.000000
1.000000 1.000000 0.000000
1.000000 1.000000 0.000000
1.000000 1.000000 0.000000
1.000000 1.000000 0.000000
1.000000 1.000000 0.000000
1.000000 1.000000 0.000000
0.000000 0.174748 0.113825
0.000000 0.174748 0.107362
0.000000 0.174748 0.101740
0.000000 0.174748 0.095336
0.000000 0.174748 0.089656
0.000000 0.174748 0.083020
0.000000 0.174748 0.075253
0.000000 0.174748 0.065168
0.000000 0.174748 0.051026
0.000000 0.174748 0.031581
0.000000 0.174748 0.005152
0.000000 0.174748 0.000000
0.043421 0.174748 0.000000
0.129554 0.240154 0.000000
0.246409 0.328889 0.000000
0.404937 0.449270 0.000000
0.612018 0.604776 0.000000
0.832407 0.755325 0.000000
1.000000 0.959500 0.000000
1.000000 1.000000 0.000000
1.000000 1.000000 0.000000
1.000000 1.000000 0.000000
1.000000 1.000000 0.000000
1.000000 1.000000 0.000000
1.000000 1.000000 0.000000
1.000000 1.000000 0.000000
1.000000 1.000000 0.000000
1.000000 1.000000 0.000000
1.000000 1.000000 0.000000
1.000000 1.000000 0.000000
1.000000 1.000000 0.000000
1.000000 1.000000 0.000000
0.000000 0.240154 0.158504
0.000000 0.240154 0.152042
0.000000 0.240154 0.146420
0.000000 0.240154 0.140015
0.000000 0.240154 0.134336
0.000000 0.240154 0.127699
0.000000 0.240154 0.119933
0.000000 0.240154 0.109848
0.000000 0.240154 0.095706
0.000000 0.240154 0.076261
0.000000 0.240154 0.049832
0.000000 0.240154 0.014477
0.000000 0.240154 0.000000
0.064148 0.240154 0.000000
0.181003 0.328889 0.000000
0.339531 0.449270 0.000000
0.553853 0.612018 0.000000
0.832407 0.820731 0.000000
1.000000 1.000000 0.000000
1.000000 1.000000 0.000000
1.000000 1.000000 0.000000
1.000000 1.000000 0.000000
1.000000 1.000000 0.000000
1.000000 1.000000 0.000000
1.000000 1.000000 0.000000
1.000000 1.000000 0.000000
1.000000 1.000000 0.000000
1.000000 1.000000 0.000000
1.000000 1.000000 0.000000
1.000000 1.000000 0.000000
1.000000 1.000000 0.000000
1.000000 1.000000 0.000000
0.000000 0.328889 0.219120
0.000000 0.328889 0.212657
0.000000 0.328889 0.207035
0.000000 0.328889 0.200631
0.000000 0.328889 0.194951
0.000000 0.328889 0.188315
0.000000 0.328889 0.180548
0.000000 0.328889 0.170463
0.000000 0.328889 0.156321
0.000000 0.328889 0.136876
0.000000 0.328889 0.110447
0.000000 0.328889 0.075092
0.000000 0.328889 0.026870
0.003533 0.328889 0.000000
0.092268 0.328889 0.000000
0.250796 0.449270 0.000000
0.465118 0.612018 0.000000
0.755347 0.832407 0.000000
1.000000 1.000000 0.000000
1.000000 1.000000 0.000000
1.000000 1.000000 0.000000
1.000000 1.000000 0.000000
1.000000 1.000000 0.000000
1.000000 1.000000 0.000000
1.000000 1.000000 0.000000
1.000000 1.000000 0.000000
1.000000 1.000000 0.000000
1.000000 1.000000 0.000000
1.000000 1.000000 0.000000
1.000000 1.000000 0.000000
1.000000 1.000000 0.000000
1.000000 1.000000 0.000000
0.000000 0.449270 0.301352
0.000000 0.449270 0.294890
0.000000 0.449270 0.289268
0.000000 0.449270 0.282863
0.000000 0.449270 0.277183
0.000000 0.449270 0.270547
0.000000 0.449270 0.262781
0.000000 0.449270 0.252696
0.000000 0.449270 0.238554
0.000000 0.449270 0.219109
0.000000 0.449270 0.192679
0.000000 0.449270 0.157325
0.000000 0.449270 0.109103
0.000000 0.449270 0.043696
0.010035 0.449270 0.000000
0.130415 0.449270 0.000000
0.344738 0.612018 0.000000
0.634966 0.832407 0.000000
1.000000 1.000000 0.000000
1.000000 1.000000 0.000000
1.000000 1.000000 0.000000
1.000000 1.000000 0.000000
1.000000 1.000000 0.000000
1.000000 1.000000 0.000000
1.000000 1.000000 0.000000
1.000000 1.000000 0.000000
1.000000 1.000000 0.000000
1.000000 1.000000 0.000000
1.000000 1.000000 0.000000
1.000000 1.000000 0.000000
1.000000 1.000000 0.000000
1.000000 1.000000 0.000000
0.000000 0.612018 0.412527
0.000000 0.612018 0.406064
0.000000 0.612018 0.400442
0.000000 0.612018 0.394038
0.000000 0.612018 0.388358
0.000000 0.612018 0.381721
0.000000 0.612018 0.373955
0.000000 0.612018 0.363870
0.000000 0.612018 0.349728
0.000000 0.612018 0.330283
0.000000 0.612018 0.303854
0.000000 0.612018 0.268499
0.000000 0.612018 0.220277
0.000000 0.612018 0.154871
0.000000 0.612018 0.066136
0.019241 0.612018 0.000000
0.181990 0.612018 0.000000
0.472218 0.832407 0.000000
0.865829 1.000000 0.000000
1.000000 1.000000 0.000000
1.000000 1.000000 0.000000
1.000000 1.000000 0.000000
1.000000 1.000000 0.000000
1.000000 1.000000 0.000000
1.000000 1.000000 0.000000
1.000000 1.000000 0.000000
1.000000 1.000000 0.000000
1.000000 1.000000 0.000000
1.000000 1.000000 0.000000
1.000000 1.000000 0.000000
1.000000 1.000000 0.000000
1.000000 1.000000 0.000000
0.000000 0.832407 0.563075
0.000000 0.832407 0.556613
0.000000 0.832407 0.550991
0.000000 0.832407 0.544587
0.000000 0.832407 0.538907
0.000000 0.832407 0.532270
0.000000 0.832407 0.524504
0.000000 0.832407 0.514419
0.000000 0.832407 0.500277
0.000000 0.832407 0.480832
0.000000 0.832407 0.454403
0.000000 0.832407 0.419048
0.000000 0.832407 0.370826
0.000000 0.832407 0.305419
0.000000 0.832407 0.216684
0.000000 0.832407 0.096304
0.031441 0.832407 0.000000
0.251830 0.832407 0.000000
0.645441 1.000000 0.000000
1.000000 1.000000 0.000000
1.000000 1.000000 0.000000
1.000000 1.000000 0.000000
1.000000 1.000000 0.000000
1.000000 1.000000 0.000000
1.000000 1.000000 0.000000
1.000000 1.000000 0.000000
1.000000 1.000000 0.000000
1.000000 1.000000 0.000000
1.000000 1.000000 0.000000
1.000000 1.000000 0.000000
1.000000 1.000000 0.000000
1.000000 1.000000 0.000000
0.000000 1.000000 0.767251
0.000000 1.000000 0.760789
0.000000 1.000000 0.755167
0.000000 1.000000 0.748762
0.000000 1.000000 0.743082
0.000000 1.000000 0.736446
0.000000 1.000000 0.728679
0.000000 1.000000 0.718594
0.000000 1.000000 0.704453
0.000000 1.000000 0.685008
0.000000 1.000000 0.658578
0.000000 1.000000 0.623223
0.000000 1.000000 0.575001
0.000000 1.000000 0.509595
0.000000 1.000000 0.420860
0.000000 1.000000 0.300480
0.000000 1.000000 0.137731
0.047654 1.000000 0.000000
0.346547 1.000000 0.000000
0.879759 1.000000 0.000000
1.000000 1.000000 0.000000
1.000000 1.000000 0.000000
1.000000 1.000000 0.000000
1.000000 1.000000 0.000000
1.000000 1.000000 0.000000
1.000000 1.000000 0.000000
1.000000 1.000000 0.000000
1.000000 1.000000 0.000000
1.000000 1.000000 0.000000
1.000000 1.000000 0.000000
1.000000 1.000000 0.000000
1.000000 1.000000 0.000000
0.000000 1.000000 1.000000
0.000000 1.000000 1.000000
0.000000 1.000000 1.000000
0.000000 1.000000 1.000000
0.000000 1.000000 1.000000
0.000000 1.000000 1.000000
0.000000 1.000000 1.000000
0.000000 1.000000 0.995185
0.000000 1.000000 0.981042
0.000000 1.000000 0.961597
0.000000 1.000000 0.935168
0.000000 1.000000 0.899813
0.000000 1.000000 0.851591
0.000000 1.000000 0.786185
0.000000 1.000000 0.697450
0.000000 1.000000 0.577070
0.000000 1.000000 0.414321
0.000000 1.000000 0.193932
0.069957 1.000000 0.000000
0.474858 1.000000 0.000000
1.000000 1.000000 0.000000
1.000000 1.000000 0.000000
1.000000 1.000000 0.000000
1.000000 1.000000 0.000000
1.000000 1.000000 0.000000
1.000000 1.000000 0.000000
1.000000 1.000000 0.000000
1.000000 1.000000 0.000000
1.000000 1.000000 0.000000
1.000000 1.000000 0.000000
1.000000 1.000000 0.000000
1.000000 1.000000 0.000000
0.000000 1.000000 1.000000
0.000000 1.000000 1.000000
0.000000 1.000000 1.000000
0.000000 1.000000 1.000000
0.000000 1.000000 1.000000
0.000000 1.000000 1.000000
0.000000 1.000000 1.000000
0.000000 1.000000 1.000000
0.000000 1.000000 1.000000
0.000000 1.000000 1.000000
0.000000 1.000000 1.000000
0.000000 1.000000 1.000000
0.000000 1.000000 1.000000
0.000000 1.000000 1.000000
0.000000 1.000000 1.000000
0.000000 1.000000 0.951688
0.000000 1.000000 0.788941
0.000000 1.000000 0.568552
0.000000 1.000000 0.269658
0.100239 1.000000 0.000000
0.648645 1.000000 0.000000
1.000000 1.000000 0.000000
1.000000 1.000000 0.000000
1.000000 1.000000 0.000000
1.000000 1.000000 0.000000
1.000000 1.000000 0.000000
1.000000 1.000000 0.000000
1.000000 1.000000 0.000000
1.000000 1.000000 0.000000
1.000000 1.000000 0.000000
1.000000 1.000000 0.000000
1.000000 1.000000 0.000000
0.000000 1.000000 1.000000
0.000000 1.000000 1.000000
0.000000 1.000000 1.000000
0.000000 1.000000 1.000000
0.000000 1.000000 1.000000
0.000000 1.000000 1.000000
0.000000 1.000000 1.000000
0.000000 1.000000 1.000000
0.000000 1.000000 1.000000
0.000000 1.000000 1.000000
0.000000 1.000000 1.000000
0.000000 1.000000 1.000000
0.000000 1.000000 1.000000
0.000000 1.000000 1.000000
0.000000 1.000000 1.000000
0.000000 1.000000 1.000000
0.000000 1.000000 1.000000
0.000000 1.000000 1.000000
0.000000 1.000000 0.777070
0.000000 1.000000 0.372169
0.141233 1.000000 0.000000
0.884035 1.000000 0.000000
1.000000 1.000000 0.000000
1.000000 1.000000 0.000000
1.000000 1.000000 0.000000
1.000000 1.000000 0.000000
1.000000 1.000000 0.000000
1.000000 1.000000 0.000000
1.000000 1.000000 0.000000
1.000000 1.000000 0.000000
1.000000 1.000000 0.000000
1.000000 1.000000 0.000000
0.000000 1.000000 1.000000
0.000000 1.000000 1.000000
0.000000 1.000000 1.000000
0.000000 1.000000 1.000000
0.000000 1.000000 1.000000
0.000000 1.000000 1.000000
0.000000 1.000000 1.000000
0.000000 1.000000 1.000000
0.000000 1.000000 1.000000
0.000000 1.000000 1.000000
0.000000 1.000000 1.000000
0.000000 1.000000 1.000000
0.000000 1.000000 1.000000
0.000000 1.000000 1.000000
0.000000 1.000000 1.000000
0.000000 1.000000 1.000000
0.000000 1.000000 1.000000
0.000000 1.000000 1.000000
0.000000 1.000000 1.000000
0.000000 1.000000 1.000000
0.000000 1.000000 0.510604
0.197193 1.000000 0.000000
1.000000 1.000000 0.000000
1.000000 1.000000 0.000000
1.000000 1.000000 0.000000
1.000000 1.000000 0.000000
1.000000 1.000000 0.000000
1.000000 1.000000 0.000000
1.000000 1.000000 0.000000
1.000000 1.000000 0.000000
1.000000 1.000000 0.000000
1.000000 1.000000 0.000000
0.000000 1.000000 1.000000
0.000000 1.000000 1.000000
0.000000 1.000000 1.000000
0.000000 1.000000 1.000000
0.000000 1.000000 1.000000
0.000000 1.000000 1.000000
0.000000 1.000000 1.000000
0.000000 1.000000 1.000000
0.000000 1.000000 1.000000
0.000000 1.000000 1.000000
0.000000 1.000000 1.000000
0.000000 1.000000 1.000000
0.000000 1.000000 1.000000
0.000000 1.000000 1.000000
0.000000 1.000000 1.000000
0.000000 1.000000 1.000000
0.000000 1.000000 1.000000
0.000000 1.000000 1.000000
0.000000 1.000000 1.000000
0.000000 1.000000 1.000000
0.000000 1.000000 1.000000
0.000000 1.000000 0.698433
0.272032 1.000000 0.000000
1.000000 1.000000 0.000000
1.000000 1.000000 0.000000
1.000000 1.000000 0.000000
1.000000 1.000000 0.000000
1.000000 1.000000 0.000000
1.000000 1.000000 0.000000
1.000000 1.000000 0.000000
1.000000 1.000000 0.000000
1.000000 1.000000 0.000000
0.000000 1.000000 1.000000
0.000000 1.000000 1.000000
0.000000 1.000000 1.000000
0.000000 1.000000 1.000000
0.000000 1.000000 1.000000
0.000000 1.000000 1.000000
0.000000 1.000000 1.000000
0.000000 1.000000 1.000000
0.000000 1.000000 1.000000
0.000000 1.000000 1.000000
0.000000 1.000000 1.000000
0.000000 1.000000 1.000000
0.000000 1.000000 1.000000
0.000000 1.000000 1.000000
0.000000 1.000000 1.000000
0.000000 1.000000 1.000000
0.000000 1.000000 1.000000
0.000000 1.000000 1.000000
0.000000 1.000000 1.000000
0.000000 1.000000 1.000000
0.000000 1.000000 1.000000
0.000000 1.000000 1.000000
0.000000 1.000000 0.953731
0.373617 1.000000 0.000000
1.000000 1.000000 0.000000
1.000000 1.000000 0.000000
1.000000 1.000000 0.000000
1.000000 1.000000 0.000000
1.000000 1.000000 0.000000
1.000000 1.000000 0.000000
1.000000 1.000000 0.000000
1.000000 1.000000 0.000000
0.000000 1.000000 1.000000
0.000000 1.000000 1.000000
0.000000 1.000000 1.000000
0.000000 1.000000 1.000000
0.000000 1.000000 1.000000
0.000000 1.000000 1.000000
0.000000 1.000000 1.000000
0.000000 1.000000 1.000000
0.000000 1.000000 1.000000
0.000000 1.000000 1.000000
0.000000 1.000000 1.000000
0.000000 1.000000 1.000000
0.000000 1.000000 1.000000
0.000000 1.000000 1.000000
0.000000 1.000000 1.000000
0.000000 1.000000 1.000000
0.000000 1.000000 1.000000
0.000000 1.000000 1.000000
0.000000 1.000000 1.000000
0.000000 1.000000 1.000000
0.000000 1.000000 1.000000
0.000000 1.000000 1.000000
0.000000 1.000000 1.000000
0.000000 1.000000 1.000000
0.512206 1.000000 0.000000
1.000000 1.000000 0.000000
1.000000 1.000000 0.000000
1.000000 1.000000 0.000000
1.000000 1.000000 0.000000
1.000000 1.000000 0.000000
1.000000 1.000000 0.000000
1.000000 1.000000 0.000000
0.000000 1.000000 1.000000
0.000000 1.000000 1.000000
0.000000 1.000000 1.000000
0.000000 1.000000 1.000000
0.000000 1.000000 1.000000
0.000000 1.000000 1.000000
0.000000 1.000000 1.000000
0.000000 1.000000 1.000000
0.000000 1.000000 1.000000
0.000000 1.000000 1.000000
0.000000 1.000000 1.000000
0.000000 1.000000 1.000000
0.000000 1.000000 1.000000
0.000000 1.000000 1.000000
0.000000 1.000000 1.000000
0.000000 1.000000 1.000000
0.000000 1.000000 1.000000
0.000000 1.000000 1.000000
0.000000 1.000000 1.000000
0.000000 1.000000 1.000000
0.000000 1.000000 1.000000
0.000000 1.000000 1.000000
0.000000 1.000000 1.000000
0.000000 1.000000 1.000000
0.000000 1.000000 1.000000
0.699862 1.000000 0.000000
1.000000 1.000000 0.000000
1.000000 1.000000 0.000000
1.000000 1.000000 0.000000
1.000000 1.000000 0.000000
1.000000 1.000000 0.000000
1.000000 1.000000 0.000000
0.000000 1.000000 1.000000
0.000000 1.000000 1.000000
0.000000 1.000000 1.000000
0.000000 1.000000 1.000000
0.000000 1.000000 1.000000
0.000000 1.000000 1.000000
0.000000 1.000000 1.000000
0.000000 1.000000 1.000000
0.000000 1.000000 1.000000
0.000000 1.000000 1.000000
0.000000 1.000000 1.000000
0.000000 1.000000 1.000000
0.000000 1.000000 1.000000
0.000000 1.000000 1.000000
0.000000 1.000000 1.000000
0.000000 1.000000 1.000000
0.000000 1.000000 1.000000
0.000000 1.000000 1.000000
