Assets/Third Party Assets/Textures/LookupTexture/newLut.CUBE
#Created by: Adobe Photoshop Export Color Lookup Plugin
TITLE "new_Frame.exr"
#LUT size
LUT_3D_SIZE 5
#data domain
#LUT data points
DOMAIN_MIN 0.000000 0.000000 0.000000
DOMAIN_MAX 0.903226 0.903226 0.903226
0.000000 0.000000 0.000000
0.031155 0.015736 0.000000
0.328889 0.219120 0.000000
1.000000 1.000000 0.000000
1.000000 1.000000 0.000000
0.000000 0.031155 0.015736
0.000000 0.031155 0.000000
0.328889 0.267776 0.000000
1.000000 1.000000 0.000000
1.000000 1.000000 0.000000
0.000000 0.328889 0.219120
0.000000 0.328889 0.170463
0.092268 0.328889 0.000000
1.000000 1.000000 0.000000
1.000000 1.000000 0.000000
0.000000 1.000000 1.000000
0.000000 1.000000 1.000000
0.000000 1.000000 1.000000
0.884035 1.000000 0.000000
1.000000 1.000000 0.000000
0.000000 1.000000 1.000000
0.000000 1.000000 1.000000
0.000000 1.000000 1.000000
0.000000 1.000000 1.000000
1.000000 1.000000 0.000000
0.015736 0.000000 0.031155
0.031155 0.000000 0.000000
0.328889 0.170463 0.000000
1.000000 1.000000 0.000000
1.000000 1.000000 0.000000
0.000000 0.000000 0.031155
0.031155 0.031155 0.031155
0.328889 0.234539 0.031155
1.000000 1.000000 0.031155
1.000000 1.000000 0.031155
0.000000 0.328889 0.267776
0.031155 0.328889 0.234539
0.125505 0.328889 0.031155
1.000000 1.000000 0.031155
1.000000 1.000000 0.031155
0.000000 1.000000 1.000000
0.031155 1.000000 1.000000
0.031155 1.000000 1.000000
0.917272 1.000000 0.031155
1.000000 1.000000 0.031155
0.000000 1.000000 1.000000
0.031155 1.000000 1.000000
0.031155 1.000000 1.000000
0.031155 1.000000 1.000000
1.000000 1.000000 0.031155
0.219120 0.000000 0.328889
0.267776 0.000000 0.328889
0.328889 0.000000 0.092268
1.000000 1.000000 0.000000
1.000000 1.000000 0.000000
0.170463 0.000000 0.328889
0.234539 0.031155 0.328889
0.328889 0.031155 0.125505
1.000000 1.000000 0.031155
1.000000 1.000000 0.031155
0.000000 0.092268 0.328889
0.031155 0.125505 0.328889
0.328889 0.328889 0.328889
1.000000 1.000000 0.328889
1.000000 1.000000 0.328890
0.000000 1.000000 1.000000
0.031155 1.000000 1.000000
0.328889 1.000000 1.000000
1.000000 1.000000 0.328889
1.000000 1.000000 0.328890
0.000000 1.000000 1.000000
0.031155 1.000000 1.000000
0.328890 1.000000 1.000000
0.328890 1.000000 1.000000
1.000000 1.000000 0.328890
1.000000 0.000000 1.000000
1.000000 0.000000 1.000000
1.000000 0.000000 1.000000
1.000000 0.000000 0.884034
1.000000 1.000000 0.000000
1.000000 0.000000 1.000000
1.000000 0.031155 1.000000
1.000000 0.031155 1.000000
1.000000 0.031155 0.917272
1.000000 1.000000 0.031155
1.000000 0.000000 1.000000
1.000000 0.031155 1.000000
1.000000 0.328889 1.000000
1.000000 0.328889 1.000000
1.000000 1.000000 0.328890
0.000000 0.884034 1.000000
0.031155 0.917272 1.000000
0.328889 1.000000 1.000000
1.000000 1.000000 1.000000
1.000000 1.000000 1.000000
0.000000 1.000000 1.000000
0.031155 1.000000 1.000000
0.328890 1.000000 1.000000
1.000000 1.000000 1.000000
1.000000 1.000000 1.000000
1.000000 0.000000 1.000000
1.000000 0.000000 1.000000
1.000000 0.000000 1.000000
1.000000 0.000000 1.000000
1.000000 0.000000 1.000000
1.000000 0.000000 1.000000
1.000000 0.031155 1.000000
1.000000 0.031155 1.000000
1.000000 0.031155 1.000000
1.000000 0.031155 1.000000
1.000000 0.000000 1.000000
1.000000 0.031155 1.000000
1.000000 0.328890 1.000000
1.000000 0.328890 1.000000
1.000000 0.328890 1.000000
1.000000 0.000000 1.000000
1.000000 0.031155 1.000000
1.000000 0.328890 1.000000
1.000000 1.000000 1.000000
1.000000 1.000000 1.000000
0.000000 1.000000 1.000000
0.031155 1.000000 1.000000
0.328890 1.000000 1.000000
1.000000 1.000000 1.000000
1.000000 1.000000 1.000000
