Assets/Third Party Assets/Textures/LookupTexture/newLut.CUBE
#Created by: Adobe Photoshop Export Color Lookup Plugin
TITLE "new_Frame.exr"
#LUT size
LUT_3D_SIZE 8
#data domain
#LUT data points
DOMAIN_MIN 0.000000 0.000000 0.000000
DOMAIN_MAX 0.903226 0.903226 0.903226
0.000000 0.000000 0.000000
0.006667 0.000000 0.000000
0.045297 0.025396 0.000000
0.174748 0.113825 0.000000
0.612018 0.412527 0.000000
1.000000 1.000000 0.000000
1.000000 1.000000 0.000000
1.000000 1.000000 0.000000
0.000000 0.006667 0.000000
0.000000 0.006667 0.000000
0.041028 0.045297 0.000000
0.174748 0.137994 0.000000
0.612018 0.436695 0.000000
1.000000 1.000000 0.000000
1.000000 1.000000 0.000000
1.000000 1.000000 0.000000
0.000000 0.045297 0.025396
0.000000 0.045297 0.001227
0.002399 0.045297 0.000000
0.172872 0.174748 0.000000
0.612018 0.475325 0.000000
1.000000 1.000000 0.000000
1.000000 1.000000 0.000000
1.000000 1.000000 0.000000
0.000000 0.174748 0.113825
0.000000 0.174748 0.089656
0.000000 0.174748 0.051026
0.043421 0.174748 0.000000
0.612018 0.604776 0.000000
1.000000 1.000000 0.000000
1.000000 1.000000 0.000000
1.000000 1.000000 0.000000
0.000000 0.612018 0.412527
0.000000 0.612018 0.388358
0.000000 0.612018 0.349728
0.000000 0.612018 0.220277
0.181990 0.612018 0.000000
1.000000 1.000000 0.000000
1.000000 1.000000 0.000000
1.000000 1.000000 0.000000
0.000000 1.000000 1.000000
0.000000 1.000000 1.000000
0.000000 1.000000 1.000000
0.000000 1.000000 1.000000
0.000000 1.000000 0.788941
0.648645 1.000000 0.000000
1.000000 1.000000 0.000000
1.000000 1.000000 0.000000
0.000000 1.000000 1.000000
0.000000 1.000000 1.000000
0.000000 1.000000 1.000000
0.000000 1.000000 1.000000
0.000000 1.000000 1.000000
0.000000 1.000000 1.000000
1.000000 1.000000 0.000000
1.000000 1.000000 0.000000
0.000000 1.000000 1.000000
0.000000 1.000000 1.000000
0.000000 1.000000 1.000000
0.000000 1.000000 1.000000
0.000000 1.000000 1.000000
0.000000 1.000000 1.000000
0.000000 1.000000 1.000000
1.000000 1.000000 0.000000
0.000000 0.000000 0.006667
0.006667 0.000000 0.000000
0.045297 0.001227 0.000000
0.174748 0.089656 0.000000
0.612018 0.388358 0.000000
1.000000 1.000000 0.000000
1.000000 1.000000 0.000000
1.000000 1.000000 0.000000
0.000000 0.000000 0.006667
0.006667 0.006667 0.006667
0.045297 0.033055 0.006667
0.174748 0.121484 0.006667
0.612018 0.420186 0.006667
1.000000 1.000000 0.006667
1.000000 1.000000 0.006667
1.000000 1.000000 0.006666
0.000000 0.041028 0.045297
0.006667 0.045297 0.033055
0.018908 0.045297 0.006667
0.174748 0.160113 0.006667
0.612018 0.458815 0.006667
1.000000 1.000000 0.006667
1.000000 1.000000 0.006667
1.000000 1.000000 0.006666
0.000000 0.174748 0.137994
0.006667 0.174748 0.121484
0.006667 0.174748 0.082854
0.059931 0.174748 0.006667
0.612018 0.588266 0.006667
1.000000 1.000000 0.006667
1.000000 1.000000 0.006667
1.000000 1.000000 0.006666
0.000000 0.612018 0.436695
0.006667 0.612018 0.420186
0.006667 0.612018 0.381556
0.006667 0.612018 0.252105
0.198499 0.612018 0.006667
1.000000 1.000000 0.006667
1.000000 1.000000 0.006667
1.000000 1.000000 0.006666
0.000000 1.000000 1.000000
0.006667 1.000000 1.000000
0.006667 1.000000 1.000000
0.006667 1.000000 1.000000
0.006667 1.000000 0.820768
0.665155 1.000000 0.006667
1.000000 1.000000 0.006667
1.000000 1.000000 0.006666
0.000000 1.000000 1.000000
0.006667 1.000000 1.000000
0.006667 1.000000 1.000000
0.006667 1.000000 1.000000
0.006667 1.000000 1.000000
0.006667 1.000000 1.000000
1.000000 1.000000 0.006667
1.000000 1.000000 0.006666
0.000000 1.000000 1.000000
0.006666 1.000000 1.000000
0.006666 1.000000 1.000000
0.006666 1.000000 1.000000
0.006666 1.000000 1.000000
0.006666 1.000000 1.000000
0.006666 1.000000 1.000000
1.000000 1.000000 0.006666
0.025396 0.000000 0.045297
0.045297 0.000000 0.041028
0.045297 0.000000 0.002399
0.174748 0.051026 0.000000
0.612018 0.349728 0.000000
1.000000 1.000000 0.000000
1.000000 1.000000 0.000000
1.000000 1.000000 0.000000
0.001227 0.000000 0.045297
0.033055 0.006667 0.045297
0.045297 0.006667 0.018908
0.174748 0.082854 0.006667
0.612018 0.381556 0.006667
1.000000 1.000000 0.006667
1.000000 1.000000 0.006667
1.000000 1.000000 0.006666
0.000000 0.002399 0.045297
0.006667 0.018908 0.045297
0.045297 0.045297 0.045297
0.174748 0.133725 0.045297
0.612018 0.432427 0.045297
1.000000 1.000000 0.045297
1.000000 1.000000 0.045297
1.000000 1.000000 0.045296
0.000000 0.172872 0.174748
0.006667 0.174748 0.160113
0.045297 0.174748 0.133725
0.086319 0.174748 0.045297
0.612018 0.561878 0.045297
1.000000 1.000000 0.045297
1.000000 1.000000 0.045297
1.000000 1.000000 0.045296
0.000000 0.612018 0.475325
0.006667 0.612018 0.458815
0.045297 0.612018 0.432427
0.045297 0.612018 0.302976
0.224887 0.612018 0.045297
1.000000 1.000000 0.045297
1.000000 1.000000 0.045297
1.000000 1.000000 0.045296
0.000000 1.000000 1.000000
0.006667 1.000000 1.000000
0.045297 1.000000 1.000000
0.045297 1.000000 1.000000
0.045297 1.000000 0.871639
0.691543 1.000000 0.045297
1.000000 1.000000 0.045297
1.000000 1.000000 0.045296
0.000000 1.000000 1.000000
0.006667 1.000000 1.000000
0.045297 1.000000 1.000000
0.045297 1.000000 1.000000
0.045297 1.000000 1.000000
0.045297 1.000000 1.000000
1.000000 1.000000 0.045297
1.000000 1.000000 0.045296
0.000000 1.000000 1.000000
0.006666 1.000000 1.000000
0.045296 1.000000 1.000000
0.045296 1.000000 1.000000
0.045296 1.000000 1.000000
0.045296 1.000000 1.000000
0.045296 1.000000 1.000000
1.000000 1.000000 0.045296
0.113825 0.000000 0.174748
0.137994 0.000000 0.174748
0.174748 0.000000 0.172872
0.174748 0.000000 0.043421
0.612018 0.220277 0.000000
1.000000 1.000000 0.000000
1.000000 1.000000 0.000000
1.000000 1.000000 0.000000
0.089656 0.000000 0.174748
0.121484 0.006667 0.174748
0.160113 0.006667 0.174748
0.174748 0.006667 0.059931
0.612018 0.252105 0.006667
1.000000 1.000000 0.006667
1.000000 1.000000 0.006667
1.000000 1.000000 0.006666
0.051026 0.000000 0.174748
0.082854 0.006667 0.174748
0.133725 0.045297 0.174748
0.174748 0.045297 0.086319
0.612018 0.302976 0.045297
1.000000 1.000000 0.045297
1.000000 1.000000 0.045297
1.000000 1.000000 0.045296
0.000000 0.043421 0.174748
0.006667 0.059931 0.174748
0.045297 0.086319 0.174748
0.174748 0.174748 0.174748
0.612018 0.473449 0.174748
1.000000 1.000000 0.174748
1.000000 1.000000 0.174747
1.000000 1.000000 0.174747
0.000000 0.612018 0.604776
0.006667 0.612018 0.588266
0.045297 0.612018 0.561878
0.174748 0.612018 0.473449
0.313316 0.612018 0.174748
1.000000 1.000000 0.174748
1.000000 1.000000 0.174747
1.000000 1.000000 0.174747
0.000000 1.000000 1.000000
0.006667 1.000000 1.000000
0.045297 1.000000 1.000000
0.174748 1.000000 1.000000
0.174748 1.000000 1.000000
0.779972 1.000000 0.174748
1.000000 1.000000 0.174747
1.000000 1.000000 0.174747
0.000000 1.000000 1.000000
0.006667 1.000000 1.000000
0.045297 1.000000 1.000000
0.174747 1.000000 1.000000
0.174747 1.000000 1.000000
0.174747 1.000000 1.000000
1.000000 1.000000 0.174747
1.000000 1.000000 0.174747
0.000000 1.000000 1.000000
0.006666 1.000000 1.000000
0.045296 1.000000 1.000000
0.174747 1.000000 1.000000
0.174747 1.000000 1.000000
0.174747 1.000000 1.000000
0.174747 1.000000 1.000000
1.000000 1.000000 0.174747
0.412526 0.000000 0.612018
0.436695 0.000000 0.612018
0.475325 0.000000 0.612018
0.604776 0.000000 0.612018
0.612018 0.000000 0.181989
1.000000 0.788940 0.000000
1.000000 1.000000 0.000000
1.000000 1.000000 0.000000
0.388358 0.000000 0.612018
0.420185 0.006667 0.612018
0.458815 0.006667 0.612018
0.588266 0.006667 0.612018
0.612018 0.006667 0.198499
1.000000 0.820768 0.006667
1.000000 1.000000 0.006667
1.000000 1.000000 0.006666
0.349728 0.000000 0.612018
0.381556 0.006667 0.612018
0.432427 0.045297 0.612018
0.561878 0.045297 0.612018
0.612018 0.045297 0.224887
1.000000 0.871639 0.045297
1.000000 1.000000 0.045297
1.000000 1.000000 0.045296
0.220277 0.000000 0.612018
0.252105 0.006667 0.612018
0.302976 0.045297 0.612018
0.473449 0.174748 0.612018
0.612018 0.174748 0.313316
1.000000 1.000000 0.174748
1.000000 1.000000 0.174747
1.000000 1.000000 0.174747
0.000000 0.181989 0.612018
0.006667 0.198499 0.612018
0.045297 0.224887 0.612018
0.174748 0.313316 0.612018
0.612018 0.612018 0.612018
1.000000 1.000000 0.612018
1.000000 1.000000 0.612018
1.000000 1.000000 0.612019
0.000000 1.000000 1.000000
0.006667 1.000000 1.000000
0.045297 1.000000 1.000000
0.174748 1.000000 1.000000
0.612018 1.000000 1.000000
1.000000 1.000000 0.612018
1.000000 1.000000 0.612018
1.000000 1.000000 0.612019
0.000000 1.000000 1.000000
0.006667 1.000000 1.000000
0.045297 1.000000 1.000000
0.174747 1.000000 1.000000
0.612018 1.000000 1.000000
0.612018 1.000000 1.000000
1.000000 1.000000 0.612018
1.000000 1.000000 0.612019
0.000000 1.000000 1.000000
0.006666 1.000000 1.000000
0.045296 1.000000 1.000000
0.174747 1.000000 1.000000
0.612019 1.000000 1.000000
0.612019 1.000000 1.000000
0.612019 1.000000 1.000000
1.000000 1.000000 0.612019
1.000000 0.000000 1.000000
1.000000 0.000000 1.000000
1.000000 0.000000 1.000000
1.000000 0.000000 1.000000
1.000000 0.000000 1.000000
1.000000 0.000000 0.648645
1.000000 1.000000 0.000000
1.000000 1.000000 0.000000
1.000000 0.000000 1.000000
1.000000 0.006667 1.000000
1.000000 0.006667 1.000000
1.000000 0.006667 1.000000
1.000000 0.006667 1.000000
1.000000 0.006667 0.665154
1.000000 1.000000 0.006667
1.000000 1.000000 0.006666
1.000000 0.000000 1.000000
1.000000 0.006667 1.000000
1.000000 0.045297 1.000000
1.000000 0.045297 1.000000
1.000000 0.045297 1.000000
1.000000 0.045297 0.691543
1.000000 1.000000 0.045297
1.000000 1.000000 0.045296
1.000000 0.000000 1.000000
1.000000 0.006667 1.000000
1.000000 0.045297 1.000000
1.000000 0.174748 1.000000
1.000000 0.174748 1.000000
1.000000 0.174748 0.779971
1.000000 1.000000 0.174747
1.000000 1.000000 0.174747
0.788940 0.000000 1.000000
0.820768 0.006667 1.000000
0.871639 0.045297 1.000000
1.000000 0.174748 1.000000
1.000000 0.612018 1.000000
1.000000 0.612018 1.000000
1.000000 1.000000 0.612018
1.000000 1.000000 0.612019
0.000000 0.648645 1.000000
0.006667 0.665154 1.000000
0.045297 0.691543 1.000000
0.174748 0.779971 1.000000
0.612018 1.000000 1.000000
1.000000 1.000000 1.000000
1.000000 1.000000 1.000000
1.000000 1.000000 1.000000
0.000000 1.000000 1.000000
0.006667 1.000000 1.000000
0.045297 1.000000 1.000000
0.174747 1.000000 1.000000
0.612018 1.000000 1.000000
1.000000 1.000000 1.000000
1.000000 1.000000 1.000000
1.000000 1.000000 1.000000
0.000000 1.000000 1.000000
0.006666 1.000000 1.000000
0.045296 1.000000 1.000000
0.174747 1.000000 1.000000
0.612019 1.000000 1.000000
1.000000 1.000000 1.000000
1.000000 1.000000 1.000000
1.000000 1.000000 1.000000
1.000000 0.000000 1.000000
1.000000 0.000000 1.000000
1.000000 0.000000 1.000000
1.000000 0.000000 1.000000
1.000000 0.000000 1.000000
1.000000 0.000000 1.000000
1.000000 0.000000 1.000000
1.000000 1.000000 0.000000
1.000000 0.000000 1.000000
1.000000 0.006667 1.000000
1.000000 0.006667 1.000000
1.000000 0.006667 1.000000
1.000000 0.006667 1.000000
1.000000 0.006667 1.000000
1.000000 0.006667 1.000000
1.000000 1.000000 0.006666
1.000000 0.000000 1.000000
1.000000 0.006667 1.000000
1.000000 0.045297 1.000000
1.000000 0.045297 1.000000
1.000000 0.045297 1.000000
1.000000 0.045297 1.000000
1.000000 0.045297 1.000000
1.000000 1.000000 0.045296
1.000000 0.000000 1.000000
1.000000 0.006667 1.000000
1.000000 0.045297 1.000000
1.000000 0.174747 1.000000
1.000000 0.174747 1.000000
1.000000 0.174747 1.000000
1.000000 0.174747 1.000000
1.000000 1.000000 0.174747
1.000000 0.000000 1.000000
1.000000 0.006667 1.000000
1.000000 0.045297 1.000000
1.000000 0.174747 1.000000
1.000000 0.612018 1.000000
1.000000 0.612018 1.000000
1.000000 0.612018 1.000000
1.000000 1.000000 0.612019
1.000000 0.000000 1.000000
1.000000 0.006667 1.000000
1.000000 0.045297 1.000000
1.000000 0.174747 1.000000
1.000000 0.612018 1.000000
1.000000 1.000000 1.000000
1.000000 1.000000 1.000000
1.000000 1.000000 1.000000
0.000000 1.000000 1.000000
0.006667 1.000000 1.000000
0.045297 1.000000 1.000000
0.174747 1.000000 1.000000
0.612018 1.000000 1.000000
1.000000 1.000000 1.000000
1.000000 1.000000 1.000000
1.000000 1.000000 1.000000
0.000000 1.000000 1.000000
0.006666 1.000000 1.000000
0.045296 1.000000 1.000000
0.174747 1.000000 1.000000
0.612019 1.000000 1.000000
1.000000 1.000000 1.000000
1.000000 1.000000 1.000000
1.000000 1.000000 1.000000
1.000000 0.000000 1.000000
1.000000 0.000000 1.000000
1.000000 0.000000 1.000000
1.000000 0.000000 1.000000
1.000000 0.000000 1.000000
1.000000 0.000000 1.000000
1.000000 0.000000 1.000000
1.000000 0.000000 1.000000
1.000000 0.000000 1.000000
1.000000 0.006666 1.000000
1.000000 0.006666 1.000000
1.000000 0.006666 1.000000
1.000000 0.006666 1.000000
1.000000 0.006666 1.000000
1.000000 0.006666 1.000000
1.000000 0.006666 1.000000
1.000000 0.000000 1.000000
1.000000 0.006666 1.000000
1.000000 0.045296 1.000000
1.000000 0.045296 1.000000
1.000000 0.045296 1.000000
1.000000 0.045296 1.000000
1.000000 0.045296 1.000000
1.000000 0.045296 1.000000
1.000000 0.000000 1.000000
1.000000 0.006666 1.000000
1.000000 0.045296 1.000000
1.000000 0.174747 1.000000
1.000000 0.174747 1.000000
1.000000 0.174747 1.000000
1.000000 0.174747 1.000000
1.000000 0.174747 1.000000
1.000000 0.000000 1.000000
1.000000 0.006666 1.000000
1.000000 0.045296 1.000000
1.000000 0.174747 1.000000
1.000000 0.612019 1.000000
1.000000 0.612019 1.000000
1.000000 0.612019 1.000000
1.000000 0.612019 1.000000
1.000000 0.000000 1.000000
1.000000 0.006666 1.000000
1.000000 0.045296 1.000000
1.000000 0.174747 1.000000
1.000000 0.612019 1.000000
1.000000 1.000000 1.000000
1.000000 1.000000 1.000000
1.000000 1.000000 1.000000
1.000000 0.000000 1.000000
1.000000 0.006666 1.000000
1.000000 0.045296 1.000000
1.000000 0.174747 1.000000
1.000000 0.612019 1.000000
1.000000 1.000000 1.000000
1.000000 1.000000 1.000000
1.000000 1.000000 1.000000
0.000000 1.000000 1.000000
0.006666 1.000000 1.000000
0.045296 1.000000 1.000000
0.174747 1.000000 1.000000
0.612019 1.000000 1.000000
1.000000 1.000000 1.000000
1.000000 1.000000 1.000000
1.000000 1.000000 1.000000
